X:1
T:Title
%%score { ( 1 4 ) | ( 2 3 ) }
L:1/8
M:4/4
K:G
V:1 treble nm="Grand Piano"
V:4 treble 
V:2 bass 
V:3 bass 
V:1
 z4 z2[Q:1/4=106] D2 | G2 G2 GABc | [DBd]2 [DBd]2 [DGB]2 [DG]>[EGA] | [GB]4 [GB]2 A2 |[M:3/4] G6 | %5
[M:1/4] D2 |[M:4/4] G2 G2 GABc | [DBd]2 [DBd]2 [DGB]2 [DGB]>[DGB] | [DFA]4 [DGB]2 [G^c]2 | %9
[M:3/4] [Fd]6 |[M:1/4] [Gd]2 |[M:4/4] [Ge]2 [Ge]2 [Ec]2 [Ge]2 | d2 d2 B2 B2 | %13
 [FA]2 [GB]2 [Ac]2 [GB]2 |[M:3/4] [FA]2 [EG]2 [FA]2 |[M:1/4] D2 |[M:4/4] G2 G2 GABc | %17
 [DBd]2 [DBd]2 [DGB]2 [DG]>[EGA] | [DGB]4 [DGB]2 [CDA]2 |[M:3/4] [B,DG]6 |[M:1/4] d>d | %21
[M:4/4] d4 [Bd]2 B>B | B4 [GB]2 z2 | [FA]4 [GB]2 [Ac]2 |[M:3/4] B6 |[M:1/4] d>d | %26
[M:4/4] d4 [Bd]2 B>B | B4 [GB]2 z2 | [CEA]4 [B,DG]2 [A,DF]2 |[M:3/4] [B,DG]6 |] %30
V:2
 z4 z2 [G,B,]2 | [G,B,D]2 [G,B,D]2 [G,D]-[G,CD][K:treble]GA | G,2 G,2 G,2[K:bass] B,,>C, | %3
 [D,D]4 [D,D]2 [D,CD]2 |[M:3/4] [G,B,D]6 |[M:1/4] [G,B,]2 | %6
[M:4/4][K:treble] [G,B,D]2 [G,B,D]2 [G,D]-[G,CD]GA | G,2 G,2 G,2 G,>G, | A,4 A,,2 [A,,A,]2 | %9
[M:3/4] [D,A,]6 |[M:1/4] [G,B,]2 |[M:4/4] [C,C]2 [C,C]2 [C,C]2 [C,C]2 | %12
 [G,B,G]2 [G,B,G]2 [G,DG]2 [G,DG]2 | [D,D]2 [D,D]2 [D,D]2 [D,D]2 |[M:3/4] [D,D]2 [D,D]2 [D,D]2 | %15
[M:1/4] [G,B,]2 |[M:4/4][K:treble] [G,B,D]2 [G,B,D]2 [G,D]-[G,CD]GA | G,2 G,2 G,2 B,,>C, | %18
 D,4 D,2 D,2 |[M:3/4] G,,6 |[M:1/4][K:treble] B>B |[M:4/4] B4 z4 | G4 z4 | [D,D]4 [D,D]2 [D,D]2 | %24
[M:3/4][K:treble] [G,DG]6 |[M:1/4] B>B |[M:4/4] B4 z4 | G4[K:bass] z4 | C,4 D,2 D,2 | %29
[M:3/4] G,,6 |] %30
V:3
 x8 | z4 .B,2[K:treble] [G,D]2 | x6[K:bass] x2 | x8 |[M:3/4] x6 |[M:1/4] x2 | %6
[M:4/4][K:treble] z4 .B,2 [G,D]2 | x8 | x8 |[M:3/4] x6 |[M:1/4] x2 |[M:4/4] x8 | x8 | x8 | %14
[M:3/4] x6 |[M:1/4] x2 |[M:4/4][K:treble] z4 .B,2 [G,D]2 | x8 | x8 |[M:3/4] x6 | %20
[M:1/4][K:treble] x2 |[M:4/4] z2 G,>G, G,G, G>G | z2 G,>G, G,G, [G,DG]>[G,DG] | x8 | %24
[M:3/4][K:treble] x6 |[M:1/4] x2 |[M:4/4] z2 G,>G, G,G, G>G | z2[K:bass] G,>G, G,G, G,>G, | x8 | %29
[M:3/4] x6 |] %30
V:4
 x8 | x8 | x8 | x8 |[M:3/4] x6 |[M:1/4] x2 |[M:4/4] x8 | x8 | x8 |[M:3/4] x6 |[M:1/4] x2 | %11
[M:4/4] x8 | x8 | x8 |[M:3/4] x6 |[M:1/4] x2 |[M:4/4] x8 | x8 | x8 |[M:3/4] x6 |[M:1/4] x2 | %21
[M:4/4] x8 | z2 D>D DD B>B | x8 |[M:3/4] x6 |[M:1/4] x2 |[M:4/4] x8 | z2 D>D DD [B,DG]>[B,DG] | %28
 x8 |[M:3/4] x6 |] %30

